X: 62
T:Lady Louisa Russell's Jig
B:William Marshall's Scottish Airs, Melodies, Strathspeys, Reels &c (1822)
C:William Marshall
L:1/8
M:6/8
O:Scotland
R:Jig
Z:Clark Bernst + Richard Robinson
%%Page:5 - 2
F:http://richardrobinson.tunebook.org.uk/tune/3905
%%TBL:{"version":1,"type":"tune","id":"3905"}
K:Bb
%%staves { 1 2 }
V:1
~f2 d ~f2 d | B2 B Bcd | e2 c d2 B | ~cAF ~F3 | \
f2 d ~f2 d | B2 B Bcd | efg fba | ga=e {e}!trill!f3 |
f2 d f2 d | B2 B Bcd | e2 c d2 B | cAF F3 | \
f2 d f2 d | B2 B Bcd | efg fba | bg=e {e}f3 |
F2 F e2 c | d2 B cAF | (FA)F (Bd)B | (df)d !trill!c3 | \
F2 F e2 c | d2 B cde | def gba | ga=e {e}!trill!f3 |
~g2 e gfe | ~f2 d fed | ~e2 c gfe | dcB AGF | \
~g2 e gfe | ~f2 d fed | efg f2 F | ~B3 B3 |]
V:2 middle=d clef=bass
[Bb]3 [Bb]3 | [Bb]3 [Bb]3 | [Aa]3 [Bb]3 | [Ff]3 [Ff]3 | B3 B3 | B3 B3 | e3 d3 | c3 f3 | \
[Bb]3 [Bb]3 | [Bb]3 [Bb]3 | [Aa]3 [Bb]3 | [Ff]3 [Ff]3 | [Bb]3 [Bb]3 | B3 b3 | e'3 d'3 | c'3 f3 | \
F3 F3 | B3 F3 | F3 B3 | B3 f3 | F3 F3 | B3 e3 | d3 B3 | c3 f3 | \
e3 e'3 | d'3 b3 | c'3 a3 | b3 f3 | e3 e'3 | d'3 b3 | e3 f3 | b3 B3 |]

